gtk-icons/Papirus-Dark-GTK/16x16/actions/view-certificate-server-configure.svg

<?xml version="1.0" encoding="UTF-8" standalone="no"?>
<!-- Created with Inkscape (http://www.inkscape.org/) -->

<svg
   xmlns:osb="http://www.openswatchbook.org/uri/2009/osb"
   xmlns:dc="http://purl.org/dc/elements/1.1/"
   xmlns:cc="http://creativecommons.org/ns#"
   xmlns:rdf="http://www.w3.org/1999/02/22-rdf-syntax-ns#"
   xmlns:svg="http://www.w3.org/2000/svg"
   xmlns="http://www.w3.org/2000/svg"
   xmlns:sodipodi="http://sodipodi.sourceforge.net/DTD/sodipodi-0.dtd"
   xmlns:inkscape="http://www.inkscape.org/namespaces/inkscape"
   sodipodi:docname="view-certificate-server-configure.svg"
   inkscape:export-filename="/home/sam/source-symbolic.png"
   inkscape:export-xdpi="270"
   inkscape:export-ydpi="270"
   height="16"
   id="svg7384"
   style="enable-background:new"
   version="1.1"
   inkscape:version="0.91 r13725"
   width="16">
  <sodipodi:namedview
     inkscape:bbox-nodes="true"
     inkscape:bbox-paths="false"
     bordercolor="#666666"
     borderlayer="false"
     borderopacity="1"
     inkscape:current-layer="layer12"
     inkscape:cx="8.8891609"
     inkscape:cy="5.529036"
     gridtolerance="10"
     inkscape:guide-bbox="true"
     guidetolerance="10"
     id="namedview88"
     inkscape:object-nodes="true"
     inkscape:object-paths="true"
     objecttolerance="10"
     pagecolor="#f7f7f7"
     inkscape:pageopacity="0"
     inkscape:pageshadow="2"
     showborder="true"
     showgrid="false"
     showguides="true"
     inkscape:showpageshadow="false"
     inkscape:snap-bbox="true"
     inkscape:snap-bbox-edge-midpoints="false"
     inkscape:snap-bbox-midpoints="true"
     inkscape:snap-center="false"
     inkscape:snap-global="true"
     inkscape:snap-grids="true"
     inkscape:snap-intersection-paths="true"
     inkscape:snap-midpoints="true"
     inkscape:snap-nodes="true"
     inkscape:snap-object-midpoints="true"
     inkscape:snap-others="true"
     inkscape:snap-page="false"
     inkscape:snap-smooth-nodes="true"
     inkscape:snap-to-guides="true"
     inkscape:window-height="847"
     inkscape:window-maximized="1"
     inkscape:window-width="1600"
     inkscape:window-x="0"
     inkscape:window-y="30"
     inkscape:zoom="26.24">
    <inkscape:grid
       color="#ffffff"
       dotted="false"
       empcolor="#0800ff"
       empopacity="0.4627451"
       empspacing="4"
       enabled="true"
       id="grid4866"
       opacity="0.16470588"
       originx="-264.0002"
       originy="-196.00336"
       snapvisiblegridlinesonly="true"
       spacingx="0.25px"
       spacingy="0.25px"
       type="xygrid"
       visible="true" />
  </sodipodi:namedview>
  <metadata
     id="metadata90">
    <rdf:RDF>
      <cc:Work
         rdf:about="">
        <dc:format>image/svg+xml</dc:format>
        <dc:type
           rdf:resource="http://purl.org/dc/dcmitype/StillImage" />
        <dc:title>Paper Symbolic Icon Theme</dc:title>
      </cc:Work>
    </rdf:RDF>
  </metadata>
  <title
     id="title8473">Paper Symbolic Icon Theme</title>
  <defs
     id="defs7386">
    <linearGradient
       id="linearGradient5606"
       osb:paint="solid">
      <stop
         id="stop5608"
         offset="0"
         style="stop-color:#ffffff;stop-opacity:1;" />
    </linearGradient>
    <style
       id="current-color-scheme"
       type="text/css">
      .ColorScheme-Text {
        color:#4d4d4d;
      }
      .ColorScheme-Background {
        color:#eff0f1;
      }
      .ColorScheme-Highlight {
        color:#3daee9;
      }
      .ColorScheme-ViewText {
        color:#31363b;
      }
      .ColorScheme-ViewBackground {
        color:#fcfcfc;
      }
      .ColorScheme-ViewHover {
        color:#93cee9;
      }
      .ColorScheme-ViewFocus{
        color:#3daee9;
      }
      .ColorScheme-ButtonText {
        color:#31363b;
      }
      .ColorScheme-ButtonBackground {
        color:#eff0f1;
      }
      .ColorScheme-ButtonHover {
        color:#93cee9;
      }
      .ColorScheme-ButtonFocus{
        color:#3daee9;
      }
      </style>
  </defs>
  <g
     inkscape:groupmode="layer"
     id="layer12"
     inkscape:label="actions"
     style="display:inline"
     transform="translate(-505.0004,-20.99664)">
    <path
       style="opacity:0.72;fill:#ffffff;fill-opacity:1;stroke:none"
       d="M 0 1 L 0 14.996094 C 2.99996 14.994994 5.99998 14.996243 9 14.998047 L 9 9.9980469 L 9 9 L 9 8.9980469 L 15 8.9980469 L 15 9 L 16 9 L 16 1.0039062 C 10.66673 1.0059063 5.33327 0.998 0 1 z M 9 3 L 15 3 L 15 4 L 9 4 L 9 3 z M 3.5 4 C 4.331 4 5 4.6673179 5 5.4980469 L 5 6.9980469 L 6 6.9980469 L 6 9.9980469 L 1 9.9980469 L 1 6.9980469 L 2 6.9980469 L 2 5.4980469 C 2 4.6673179 2.669 4 3.5 4 z M 3.5 4.9980469 C 3.223 4.9980469 3 5.2211369 3 5.4980469 L 3 6.9980469 L 4 6.9980469 L 4 5.4980469 C 4 5.2211369 3.777 4.9980469 3.5 4.9980469 z M 9 5.9980469 L 15 5.9980469 L 15 6.9980469 L 9 6.9980469 L 9 5.9980469 z M 12 10 L 12 10.585938 L 11.585938 10.171875 L 10.171875 11.585938 L 10.585938 12 L 10 12 L 10 14 L 10.585938 14 L 10.171875 14.414062 L 11.585938 15.828125 L 12 15.414062 L 12 16 L 14 16 L 14 15.414062 L 14.414062 15.828125 L 15.828125 14.414062 L 15.414062 14 L 16 14 L 16 12 L 15.414062 12 L 15.828125 11.585938 L 14.414062 10.171875 L 14 10.585938 L 14 10 L 12 10 z M 13 12 A 1 1 0 0 1 14 13 A 1 1 0 0 1 13 14 A 1 1 0 0 1 12 13 A 1 1 0 0 1 13 12 z "
       transform="translate(505.0004,20.99664)"
       id="path4286" />
    <g
       id="layer9"
       inkscape:label="status"
       style="display:inline"
       transform="translate(67.25841,-1.591596)" />
    <g
       id="layer1"
       inkscape:label="places"
       style="display:inline"
       transform="translate(308.25861,-618.59159)" />
    <g
       id="layer14"
       inkscape:label="mimetypes"
       style="display:inline"
       transform="translate(67.25841,-1.591596)" />
    <g
       id="layer15"
       inkscape:label="emblems"
       style="display:inline"
       transform="translate(67.25841,-1.591596)" />
    <g
       id="g71291"
       inkscape:label="emotes"
       style="display:inline"
       transform="translate(67.25841,-1.591596)" />
    <g
       id="layer2"
       inkscape:label="categories"
       style="display:inline"
       transform="translate(308.25861,-468.59159)" />
    <g
       transform="translate(135.38095,-951.4471)"
       style="fill:#333333"
       inkscape:label="emblem-important"
       id="g6718" />
    <g
       transform="translate(38.040554,-15.57897)"
       style="display:inline"
       inkscape:label="status"
       id="layer9-8" />
    <g
       transform="translate(279.04075,-632.57897)"
       style="display:inline"
       inkscape:label="places"
       id="layer1-9" />
    <g
       transform="translate(38.040554,-15.57897)"
       style="display:inline"
       inkscape:label="mimetypes"
       id="layer14-8" />
    <g
       transform="translate(38.040554,-15.57897)"
       style="display:inline"
       inkscape:label="emblems"
       id="layer15-0" />
    <g
       transform="translate(38.040554,-15.57897)"
       style="display:inline"
       inkscape:label="emotes"
       id="g71291-9" />
    <g
       transform="translate(279.04075,-482.57897)"
       style="display:inline"
       inkscape:label="categories"
       id="layer2-2" />
    <g
       transform="translate(38.040554,-15.57897)"
       style="display:inline"
       inkscape:label="actions"
       id="layer12-8" />
    <g
       id="layer12-7"
       inkscape:label="actions"
       style="display:inline"
       transform="translate(67.25841,-1.591596)" />
    <g
       transform="matrix(0.3,0,0,0.33333333,491.86135,27.493023)"
       id="g4315"
       style="enable-background:new">
      <g
         id="layer12-5"
         inkscape:label="actions"
         style="display:inline"
         transform="translate(-505.0002,-41)" />
    </g>
    <g
       id="layer9-1"
       inkscape:label="status"
       style="display:inline"
       transform="translate(70.2454,0.17311)" />
    <g
       id="layer1-94"
       inkscape:label="places"
       style="display:inline"
       transform="translate(311.2456,-616.82689)" />
    <g
       id="layer14-80"
       inkscape:label="mimetypes"
       style="display:inline"
       transform="translate(70.2454,0.17311)" />
    <g
       id="layer15-4"
       inkscape:label="emblems"
       style="display:inline"
       transform="translate(70.2454,0.17311)" />
    <g
       id="g71291-1"
       inkscape:label="emotes"
       style="display:inline"
       transform="translate(70.2454,0.17311)" />
    <g
       id="layer2-1"
       inkscape:label="categories"
       style="display:inline"
       transform="translate(311.2456,-466.82689)" />
    <g
       id="layer12-79"
       inkscape:label="actions"
       style="display:inline"
       transform="translate(70.2454,0.17311)" />
  </g>
</svg>

<?xml version="1.0" encoding="UTF-8" standalone="no"?>
<!-- Created with Inkscape (http://www.inkscape.org/) -->
<svg id="svg7384" xmlns:rdf="http://www.w3.org/1999/02/22-rdf-syntax-ns#" style="enable-background:new" xmlns="http://www.w3.org/2000/svg" xmlns:osb="http://www.openswatchbook.org/uri/2009/osb" height="16" width="16" version="1.1" xmlns:cc="http://creativecommons.org/ns#" xmlns:dc="http://purl.org/dc/elements/1.1/">
 <metadata id="metadata90">
  <rdf:RDF>
   <cc:Work rdf:about="">
    <dc:format>image/svg+xml</dc:format>
    <dc:type rdf:resource="http://purl.org/dc/dcmitype/StillImage"/>
    <dc:title>Paper Symbolic Icon Theme</dc:title>
   </cc:Work>
  </rdf:RDF>
 </metadata>
 <title id="title8473">Paper Symbolic Icon Theme</title>
 <defs id="defs7386">
  <style id="current-color-scheme" type="text/css">.ColorScheme-Text {
        color:#4d4d4d;
      }
      .ColorScheme-Background {
        color:#eff0f1;
      }
      .ColorScheme-Highlight {
        color:#3daee9;
      }
      .ColorScheme-ViewText {
        color:#31363b;
      }
      .ColorScheme-ViewBackground {
        color:#fcfcfc;
      }
      .ColorScheme-ViewHover {
        color:#93cee9;
      }
      .ColorScheme-ViewFocus{
        color:#3daee9;
      }
      .ColorScheme-ButtonText {
        color:#31363b;
      }
      .ColorScheme-ButtonBackground {
        color:#eff0f1;
      }
      .ColorScheme-ButtonHover {
        color:#93cee9;
      }
      .ColorScheme-ButtonFocus{
        color:#3daee9;
      }</style>
 </defs>
 <g id="layer12" transform="translate(-505 -20.997)">
  <path id="path4286" opacity=".72" d="m0 1v13.996c3-0.001 6 0 9 0.002v-5-0.998-0.002h6v0.002h1v-7.9961c-5.333 0.002-10.667-0.0059-16-0.0039zm9 2h6v1h-6v-1zm-5.5 1c0.831 0 1.5 0.6673 1.5 1.498v1.5h1v3h-5v-3h1v-1.5c0-0.8307 0.669-1.498 1.5-1.498zm0 0.998c-0.277 0-0.5 0.2231-0.5 0.5v1.5h1v-1.5c0-0.2769-0.223-0.5-0.5-0.5zm5.5 1h6v1h-6v-1zm3 4.002v0.586l-0.414-0.414-1.414 1.414 0.414 0.414h-0.586v2h0.586l-0.414 0.414 1.414 1.414 0.414-0.414v0.586h2v-0.586l0.414 0.414 1.414-1.414-0.414-0.414h0.586v-2h-0.586l0.414-0.414-1.414-1.414-0.414 0.414v-0.586h-2zm1 2a1 1 0 0 1 1 1 1 1 0 0 1 -1 1 1 1 0 0 1 -1 -1 1 1 0 0 1 1 -1z" transform="translate(505 20.997)" fill="#fff"/>
  <g id="g4315" style="enable-background:new" transform="matrix(.3 0 0 .33333 491.86 27.493)"></g>
 </g>
</svg>
